assets/svg/user.svg

<svg fill="none" height="24" viewBox="0 0 24 24" width="24" xmlns="http://www.w3.org/2000/svg"><g stroke="#000" stroke-linecap="round" stroke-linejoin="round" stroke-width="2"><path d="m11.9999 15c-3.17013 0-5.98925 1.5306-7.78405 3.906-.38629.5112-.57944.7668-.57312 1.1123.00488.2669.17248.6036.38249.7684.27182.2133.6485.2133 1.40186.2133h13.14552c.7534 0 1.1301 0 1.4019-.2133.21-.1648.3776-.5015.3825-.7684.0063-.3455-.1869-.6011-.5731-1.1123-1.7948-2.3754-4.614-3.906-7.784-3.906z"/><path d="m11.9999 12c2.4852 0 4.5-2.01472 4.5-4.5s-2.0148-4.5-4.5-4.5c-2.48533 0-4.50005 2.01472-4.50005 4.5s2.01472 4.5 4.50005 4.5z"/></g></svg>

<svg width="24" height="24" viewBox="0 0 24 24" fill="none" xmlns="http://www.w3.org/2000/svg">
<path d="M11.9999 15C8.82977 15 6.01065 16.5306 4.21585 18.906C3.82956 19.4172 3.63641 19.6728 3.64273 20.0183C3.64761 20.2852 3.81521 20.6219 4.02522 20.7867C4.29704 21 4.67372 21 5.42708 21H18.5726C19.326 21 19.7027 21 19.9745 20.7867C20.1845 20.6219 20.3521 20.2852 20.357 20.0183C20.3633 19.6728 20.1701 19.4172 19.7839 18.906C17.9891 16.5306 15.1699 15 11.9999 15Z" stroke="black" stroke-width="2" stroke-linecap="round" stroke-linejoin="round"/>
<path d="M11.9999 12C14.4851 12 16.4999 9.98528 16.4999 7.5C16.4999 5.01472 14.4851 3 11.9999 3C9.51457 3 7.49985 5.01472 7.49985 7.5C7.49985 9.98528 9.51457 12 11.9999 12Z" stroke="black" stroke-width="2" stroke-linecap="round" stroke-linejoin="round"/>
</svg>
